X:1
T:Cest ung grand cas
T:Gentian
T:Source : Livre XI de 28 chansons nouvelles à 4 parties---Paris---P.Attaingnant---1542. Editor : André Vierendeels (04/06/18) Notes : Original clefs : C1, C3, C4, F4 Original note values have been halved Editorial accidentals above the staff Square brackets indicate ligatures 
T:Cest ung grand cas
T:©
T:©
T:©
T:©
T:©
C:Gentian
Z:©
%%score [ 1 [ 2 3 ] 4 ]
L:1/8
Q:1/4=120
M:2/2
K:F
V:1 treble nm="Alto" snm="A"
V:2 treble-8 nm="Tenor 1" snm="T 1"
V:3 treble-8 nm="Tenor 2" snm="T 2"
V:4 bass nm="Bass" snm="B"
V:1
 F8 | A4 A4 | G4 z2 G2 | B2 B2 A2 G2 | F4 E4 | F4 E2 E2 | DEFG A3 G/F/ | E2 A2 G2 F2 | F2 E2 F4 | %9
w: Cest|un grand|cas qu'a-|mour qui a puis-|san- ce,|de no- stre|corps _ _ _ _ _ _|_ les mem- bres|gou- ver- ner;|
w: Quant|on pour-|suyt le|don de iou- ys-|san- ce,|la bou- che|seul- * * * * * *|* le'a soy ne|peult tour- ner,|
[M:2/4] z4 :|[M:2/2] F4 F2 F2 | E2 E2 G2 G2 | F3 G A2 B2- | B2 A2 B2 F2 | GF_ED E4 | D4 B4 | %16
w: |Mais au con-|trai- r'el- le faict|re- * * tour-|* * ner, tous|ses _ _ _ plai|sirs, ses|
w: |||||||
 A2 G2 F4 | EDEF G4 | F2 E2 D4 | E4 z2 F2 | G6 F2 |"^-natural" E4 D4 | F2 F2 G2 G2 | F4 z4 | %24
w: pro- mes- ses|et _ _ _ _|_ _ _|veulx, de|crain- t'et|peur en|re- fuz fu- ri-|eux,|
w: ||||||||
 B4 A2 A2 | G4 z2 A2 | B3 A G2 F2- | FEDC D4 | C8 |: z4 A4- | A4 A4 | A4 G4 | z2 G2 B4 | A2 G2 F4 | %34
w: par moy le|sçay, dont|ie me doibs dou-||loir,|car|_ me|tai- sant,|ie dis|bien, ie le|
w: ||||||||||
 E4 E4 | F2 E2 C4 | z2 C2 D2 E2 | F2 F2 B2 G2 | AGFE F2 G2 | C2 D3 E F2- | F2 E2 !fermata!F4 :| %41
w: veulx mais,|en par- lant,|mais en par-|lant, ie ne l'o-|se _ _ _ _ _|_ vou- * *|* * loir.|
w: |||||||
V:2
 c8 | f4 f4 | d2 d2 _e2 e2 | d2 B2 c4 | d4 G4 | z2 c2 c2 c2 | F4 c4 | c2 e2 d2 B2 | c4 c4 | %9
w: Cest|un grand|cas qu'a- mour qui|a puis- san-|* ce,|de no- stre|corps les|mem- bres gou- *|ver- ner,|
w: Quant|on pour-|suyt le don de|iou- ys- san-|* ce,|la bou- che|seul- le'à|soy ne _ peult|tour- ner,|
[M:2/4] z4 :|[M:2/2] B4 d2 d2 | c2 c2 d2 d2- | d2 f4 e2 | f4 d4 | B4 c4 | F4 f4 | f2 e2 d4 | %17
w: |Mais au con-|trai- r'el- le faict|_ re- tour-|ner, tous|ses plai-|sirs, ses|pro- mes- ses|
w: ||||||||
 c3 B/A/ G2 d2- | dc c4 B2 | c4 c4 | _e6 c2 | c2 G2 B3 c | de d2 d2 c2 | d4 f4 | f4 z2 f2 | %25
w: et _ _ _ _|_ _ _ _|veulx, de|crain- t'et|peur en re- *|* * fuz fu- ri-|eux, par|moy, par|
w: ||||||||
 d2 d2 d4 | d4 e2 d2 | d4 B4 | G8 |: z4 f4- | f4 f4 | f4 d2 d2 | _e4 d2 B2 | c4 d4 | G8 | %35
w: moy le sçay,|dont ie me|doibs dou-|loir,|car|_ me|tai- sant, ie|dis bien, ie|le _|veulx,|
w: ||||||||||
 z2 G2 A2 c2 | c2 A2 B2 c2 | F2 F2 G4 | z2 c2 d2 e2 | f2 F2 B2 A2 | c2 c2 !fermata!A4 :| %41
w: mais, en par-|lant, ie ne l'o-|se vou- loir,|mais en par-|lant, ie ne l'o-|se vou- loir.|
w: ||||||
V:3
 A8 | d4 c4 | B2 G2 c2 c2 | B2 G2 A2 c2- |"^-natural" c2 B2 c4 | z2 A2 A2 G2 | B4 A4 | G2 c2 BAGF | %8
w: Cest|un grand|cas qu'a- mour qui|a puis- san- *|* * ce,|de no- stre|corps les|mem- bres gou- * * *|
w: Quant|on pour-|suyt le don de|iou- ys- san- *|* * ce,|la bou- che|seul- le'à|soy ne peult _ _ _|
 G2 G2 F4 |[M:2/4] z4 :|[M:2/2] F4 B2 B2 | G2 G2 BABc | d2 d2 c2 B2 |"^b" c4 B4 | G2 B4 A2 | %15
w: * ver- ner,||Mais au con-|trai- r'el- le _ _ _|_ faict re- tour-|ner tous|ses plai- *|
w: _ tour- ner,|||||||
 B4 d4 | c3 B A2 B2 | G3 A Bc B2- | BAGF G4- |"^-natural" G4 z2 A2 | B6 A2 | G2 c2 G2 B2- | %22
w: sirs, ses|pro- * * mes-|ses _ _ _ et|_ _ _ _ veulx,|_ de|crain- t'et|peur en re- fuz|
w: |||||||
 B2 A4 G2 | A4 d4 | d4 z4 | B4 A2 A2 | G4 z2 A2 | B3 A G2 F2- | F2 ED E4 |: z4 c4- | c4 d4 | %31
w: fu- ri- *|eux, par|moy,|par moy le|sçay, dont|ie me doibs dou-|* * * loir|car|_ me|
w: |||||||||
 c4 B2 G2 | c4 B2 G2 |"^-natural" A2 c4 B2 | c4 c4 | A2 c3 B AG | A4 z4 | z2 C2 D2 E2 | %38
w: tai- sant, ie|dis bien, ie|le _ _|veulx, mais|en par- * * *|lant,|mais en par-|
w: |||||||
 F2 F2 B2 G2 | A4 G2 F2 | G4 !fermata!F4 :| %41
w: lant, ie ne l'o-|* * se|vou- loir.|
w: |||
V:4
 F,8 | D,4 F,4 | G,4 z2 C,2 | G,2 G,2 F,2 E,2 | D,4 C,4 | z2 F,,2 C,2 C,2 | %6
w: Cest|un grand|cas mour|qui a puis- san-|* ce,|de no- stre|
w: Quant|on pour-|suyt le|don de iou- ys-|san- ce,|la bou- che|
 B,,3 A,,/G,,/ F,,G,,A,,B,, | C,2 A,,2 B,,2 D,2 | C,2 C,2 F,,4 |[M:2/4] z4 :| %10
w: corps _ _ les _ _ _|_ mem- bres gou-|* ver- ner,||
w: seul- * * * le'à _ _|_ soy ne peult|_ tour- ner,||
[M:2/2] B,,4 B,,2 B,,2 | C,2 C,2 G,,2 G,,2 |"^-natural" B,,C,D,E, F,2 G,2 | F,4 z2 B,,2 | %14
w: Mais au con-|trai- r'el- le faict|re- * * * * tour-|ner tous|
w: ||||
 _E,4 C,4 | B,,4 B,,4 | F,2 C,2 D,2 B,,2 | C,4 z2 G,,2 | B,,2 C,2 G,,2 G,,2 | C,4 F,4 | _E,6 F,2 | %21
w: ses plai-|sirs, ses|pro- * * mes-|ses et|_ _ _ _|veulx, de|crain- t'et|
w: |||||||
 C,4 z2 G,2 | D,2 F,2 E,2 E,2 | D,4 z2 B,,2 | B,,4 F,4 | G,2 G,2 D,4 | z2 G,,2 C,2 D,2 | %27
w: peur en|re- fuz fu- ri-|eux, par|moy, par|moy le sçay,|dont ie me|
w: ||||||
 B,,4 B,,4 | C,8 |: z4 F,4- | F,4 D,4 | F,4 G,4 | z2 C,2 G,4 |"^b" F,2 E,2 D,4 | C,4 C,4 | %35
w: doibs dou-|loir,|car|_ me|tai- sant,|ie dis|bien, ie le|veulx, mais|
w: ||||||||
 D,2 E,2 F,2 C,2 | F,3 E, D,2 C,2 | B,,2 A,,2 G,,4 | F,,4 z2 C,2 | F,2 D,2 B,,2 D,2 | %40
w: en par- lant ie|ne _ _ l'o-|se vou- *|loir, ie|ne l'o- * se|
w: |||||
 C,4 !fermata!F,,4 :| %41
w: vou- loir.|
w: |

